svgs/solid/calendar-lines.svg

<svg xmlns="http://www.w3.org/2000/svg" viewBox="0 0 448 512"><!-- Font Awesome Pro 6.0.0-alpha2 by @fontawesome - https://fontawesome.com License - https://fontawesome.com/license (Commercial License) --><path d="M400 64H352V32C352 14.4 337.6 0 320 0S288 14.4 288 32V64H160V32C160 14.4 145.6 0 128 0S96 14.4 96 32V64H48C21.49 64 0 85.49 0 112V160H448V112C448 85.49 426.51 64 400 64ZM0 464C0 490.5 21.5 512 48 512H400C426.5 512 448 490.5 448 464V192H0V464ZM120 272H328C341.25 272 352 282.75 352 296S341.25 320 328 320H120C106.75 320 96 309.25 96 296S106.75 272 120 272ZM120 368H232C245.25 368 256 378.75 256 392S245.25 416 232 416H120C106.75 416 96 405.25 96 392S106.75 368 120 368Z"/></svg>

<svg xmlns="http://www.w3.org/2000/svg" viewBox="0 0 448 512"><!--! Font Awesome Pro 6.4.0 by @fontawesome - https://fontawesome.com License - https://fontawesome.com/license (Commercial License) Copyright 2023 Fonticons, Inc. --><path d="M96 32V64H48C21.5 64 0 85.5 0 112v48H448V112c0-26.5-21.5-48-48-48H352V32c0-17.7-14.3-32-32-32s-32 14.3-32 32V64H160V32c0-17.7-14.3-32-32-32S96 14.3 96 32zM448 192H0V464c0 26.5 21.5 48 48 48H400c26.5 0 48-21.5 48-48V192zM96 296c0-13.3 10.7-24 24-24H328c13.3 0 24 10.7 24 24s-10.7 24-24 24H120c-13.3 0-24-10.7-24-24zm24 72H232c13.3 0 24 10.7 24 24s-10.7 24-24 24H120c-13.3 0-24-10.7-24-24s10.7-24 24-24z"/></svg>
